svgs/light/truck-pickup.svg

<svg xmlns="http://www.w3.org/2000/svg" viewBox="0 0 640 512"><!--! Font Awesome Pro 6.4.0 by @fontawesome - https://fontawesome.com License - https://fontawesome.com/license (Commercial License) Copyright 2023 Fonticons, Inc. --><path d="M256 80V192H485.3L389 70.1c-3-3.8-7.7-6.1-12.6-6.1H272c-8.8 0-16 7.2-16 16zM524.6 190.1l1.5 1.9H552c30.9 0 56 25.1 56 56V352h16c8.8 0 16 7.2 16 16s-7.2 16-16 16H608 576 560c0 53-43 96-96 96s-96-43-96-96H272c0 53-43 96-96 96s-96-43-96-96H64 32 16c-8.8 0-16-7.2-16-16s7.2-16 16-16H32V248c0-30.9 25.1-56 56-56H224V80c0-26.5 21.5-48 48-48H376.5c14.7 0 28.6 6.7 37.7 18.3L524.6 190.1zM64 352H85.5c13.2-37.3 48.7-64 90.5-64s77.4 26.7 90.5 64H373.5c13.2-37.3 48.7-64 90.5-64s77.4 26.7 90.5 64H576V248c0-13.3-10.7-24-24-24H88c-13.3 0-24 10.7-24 24V352zm176 32a64 64 0 1 0 -128 0 64 64 0 1 0 128 0zm224 64a64 64 0 1 0 0-128 64 64 0 1 0 0 128z"/></svg>

<svg xmlns="http://www.w3.org/2000/svg" viewBox="0 0 640 512"><!--! Font Awesome Pro 6.3.0 by @fontawesome - https://fontawesome.com License - https://fontawesome.com/license (Commercial License) Copyright 2023 Fonticons, Inc. --><path d="M526.1 192H552C582.9 192 608 217.1 608 248V352H624C632.8 352 640 359.2 640 368C640 376.8 632.8 384 624 384H560C560 437 517 480 464 480C410.1 480 368 437 368 384H272C272 437 229 480 176 480C122.1 480 80 437 80 384H16C7.164 384 0 376.8 0 368C0 359.2 7.164 352 16 352H32V248C32 217.1 57.07 192 88 192H224V80C224 53.49 245.5 32 272 32H376.5C391.2 32 405.1 38.73 414.2 50.26L526.1 192zM256 192H485.3L389 70.09C386 66.24 381.4 64 376.5 64H272C263.2 64 256 71.16 256 80V192zM64 352H85.46C98.64 314.7 134.2 288 176 288C217.8 288 253.4 314.7 266.5 352H373.5C386.6 314.7 422.2 288 464 288C505.8 288 541.4 314.7 554.5 352H576V248C576 234.7 565.3 224 552 224H87.1C74.74 224 63.1 234.7 63.1 248L64 352zM176 320C140.7 320 112 348.7 112 384C112 419.3 140.7 448 176 448C211.3 448 240 419.3 240 384C240 348.7 211.3 320 176 320zM464 448C499.3 448 528 419.3 528 384C528 348.7 499.3 320 464 320C428.7 320 400 348.7 400 384C400 419.3 428.7 448 464 448z"/></svg>
